Newaita-dark/emblems/48/emblem-package.svg

<svg height="48" viewBox="0 0 48 48" width="48" xmlns="http://www.w3.org/2000/svg"><path d="m359.965644 255.093763c-88.652956 0-159.984731 71.331775-159.984731 159.984731v1120.05058c0 88.652956 71.331775 159.98473 159.984731 159.98473h1200.042945c88.652956 0 159.984731-71.331774 159.984731-159.98473v-1120.05058c0-88.652956-71.331775-159.984731-159.984731-159.984731zm79.992365 159.984731h1040.058215c44.247745 0 79.992365 35.74462 79.992365 79.992365v400.119292h-199.980913v-39.996182c0-44.405211-35.74462-80.149831-79.992366-80.149831-44.40521 0-79.992365 35.74462-79.992365 80.149831v39.996182h-480.111657v-39.996182c0-44.405211-35.587155-80.149831-79.992365-80.149831-44.247746 0-79.992366 35.74462-79.992366 80.149831v39.996182h-199.980913v-400.119292c0-44.247745 35.74462-79.992365 79.992365-79.992365zm-79.992365 640.096388h199.980913v39.996183c0 44.247745 35.74462 79.992365 79.992366 79.992365 44.40521 0 79.992365-35.74462 79.992365-79.992365v-39.996183h480.111657v39.996183c0 44.247745 35.587155 79.992365 79.992365 79.992365 44.247746 0 79.992366-35.74462 79.992366-79.992365v-39.996183h199.980913v399.961826c0 44.247746-35.74462 79.992366-79.992365 79.992366h-1040.058215c-44.247745 0-79.992365-35.74462-79.992365-79.992366zm0 0" fill="none" stroke="#424242" stroke-linejoin="round" stroke-width="309.921265" transform="scale(.0248071)"/><path d="m8.929688 6.328125c-2.199219 0-3.96875 1.769531-3.96875 3.96875v27.785156c0 2.199219 1.769531 3.96875 3.96875 3.96875h29.769531c2.199219 0 3.96875-1.769531 3.96875-3.96875v-27.785156c0-2.199219-1.769531-3.96875-3.96875-3.96875zm1.984374 3.96875h25.800782c1.097656 0 1.984375.886719 1.984375 1.984375v9.925781h-4.960938v-.992187c0-1.101563-.886719-1.988282-1.984375-1.988282-1.101562 0-1.984375.886719-1.984375 1.988282v.992187h-11.910156v-.992187c0-1.101563-.882813-1.988282-1.984375-1.988282-1.097656 0-1.984375.886719-1.984375 1.988282v.992187h-4.960937v-9.925781c0-1.097656.886718-1.984375 1.984374-1.984375zm-1.984374 15.878906h4.960937v.992188c0 1.097656.886719 1.984375 1.984375 1.984375 1.101562 0 1.984375-.886719 1.984375-1.984375v-.992188h11.910156v.992188c0 1.097656.882813 1.984375 1.984375 1.984375 1.097656 0 1.984375-.886719 1.984375-1.984375v-.992188h4.960938v9.921875c0 1.097656-.886719 1.984375-1.984375 1.984375h-25.800782c-1.097656 0-1.984374-.886719-1.984374-1.984375zm0 0" fill="#fafafa"/></svg>

<?xml version="1.0" encoding="UTF-8"?>
<svg xmlns="http://www.w3.org/2000/svg" xmlns:xlink="http://www.w3.org/1999/xlink" width="48px" height="48px" viewBox="0 0 48 48" version="1.1">
<g id="surface1">
<path style="fill:none;stroke-width:309.921265;stroke-linecap:butt;stroke-linejoin:round;stroke:rgb(25.882354%,25.882354%,25.882354%);stroke-opacity:1;stroke-miterlimit:4;" d="M 359.965644 255.093763 C 271.312688 255.093763 199.980913 326.425538 199.980913 415.078494 L 199.980913 1535.129074 C 199.980913 1623.78203 271.312688 1695.113804 359.965644 1695.113804 L 1560.008589 1695.113804 C 1648.661545 1695.113804 1719.99332 1623.78203 1719.99332 1535.129074 L 1719.99332 415.078494 C 1719.99332 326.425538 1648.661545 255.093763 1560.008589 255.093763 Z M 439.958009 415.078494 L 1480.016224 415.078494 C 1524.263969 415.078494 1560.008589 450.823114 1560.008589 495.070859 L 1560.008589 895.190151 L 1360.027676 895.190151 L 1360.027676 855.193969 C 1360.027676 810.788758 1324.283056 775.044138 1280.03531 775.044138 C 1235.6301 775.044138 1200.042945 810.788758 1200.042945 855.193969 L 1200.042945 895.190151 L 719.931288 895.190151 L 719.931288 855.193969 C 719.931288 810.788758 684.344133 775.044138 639.938923 775.044138 C 595.691177 775.044138 559.946557 810.788758 559.946557 855.193969 L 559.946557 895.190151 L 359.965644 895.190151 L 359.965644 495.070859 C 359.965644 450.823114 395.710264 415.078494 439.958009 415.078494 Z M 359.965644 1055.174882 L 559.946557 1055.174882 L 559.946557 1095.171065 C 559.946557 1139.41881 595.691177 1175.16343 639.938923 1175.16343 C 684.344133 1175.16343 719.931288 1139.41881 719.931288 1095.171065 L 719.931288 1055.174882 L 1200.042945 1055.174882 L 1200.042945 1095.171065 C 1200.042945 1139.41881 1235.6301 1175.16343 1280.03531 1175.16343 C 1324.283056 1175.16343 1360.027676 1139.41881 1360.027676 1095.171065 L 1360.027676 1055.174882 L 1560.008589 1055.174882 L 1560.008589 1455.136708 C 1560.008589 1499.384454 1524.263969 1535.129074 1480.016224 1535.129074 L 439.958009 1535.129074 C 395.710264 1535.129074 359.965644 1499.384454 359.965644 1455.136708 Z M 359.965644 1055.174882 " transform="matrix(0.0248071,0,0,0.0248071,0,0)"/>
<path style=" stroke:none;fill-rule:nonzero;fill:rgb(98.039216%,98.039216%,98.039216%);fill-opacity:1;" d="M 8.929688 6.328125 C 6.730469 6.328125 4.960938 8.097656 4.960938 10.296875 L 4.960938 38.082031 C 4.960938 40.28125 6.730469 42.050781 8.929688 42.050781 L 38.699219 42.050781 C 40.898438 42.050781 42.667969 40.28125 42.667969 38.082031 L 42.667969 10.296875 C 42.667969 8.097656 40.898438 6.328125 38.699219 6.328125 Z M 10.914062 10.296875 L 36.714844 10.296875 C 37.8125 10.296875 38.699219 11.183594 38.699219 12.28125 L 38.699219 22.207031 L 33.738281 22.207031 L 33.738281 21.214844 C 33.738281 20.113281 32.851562 19.226562 31.753906 19.226562 C 30.652344 19.226562 29.769531 20.113281 29.769531 21.214844 L 29.769531 22.207031 L 17.859375 22.207031 L 17.859375 21.214844 C 17.859375 20.113281 16.976562 19.226562 15.875 19.226562 C 14.777344 19.226562 13.890625 20.113281 13.890625 21.214844 L 13.890625 22.207031 L 8.929688 22.207031 L 8.929688 12.28125 C 8.929688 11.183594 9.816406 10.296875 10.914062 10.296875 Z M 8.929688 26.175781 L 13.890625 26.175781 L 13.890625 27.167969 C 13.890625 28.265625 14.777344 29.152344 15.875 29.152344 C 16.976562 29.152344 17.859375 28.265625 17.859375 27.167969 L 17.859375 26.175781 L 29.769531 26.175781 L 29.769531 27.167969 C 29.769531 28.265625 30.652344 29.152344 31.753906 29.152344 C 32.851562 29.152344 33.738281 28.265625 33.738281 27.167969 L 33.738281 26.175781 L 38.699219 26.175781 L 38.699219 36.097656 C 38.699219 37.195312 37.8125 38.082031 36.714844 38.082031 L 10.914062 38.082031 C 9.816406 38.082031 8.929688 37.195312 8.929688 36.097656 Z M 8.929688 26.175781 "/>
</g>
</svg>
